svg/opened_folder.svg

<svg xmlns="http://www.w3.org/2000/svg" viewBox="0 0 32 32" enable-background="new 0 0 32 32"><path d="M 5 3 L 5 4 L 5 27 L 5 27.8125 L 5.78125 27.96875 L 17.78125 30.46875 L 19 30.71875 L 19 29.5 L 19 28 L 24 28 L 25 28 L 25 27 L 25 15.4375 L 26.71875 13.71875 L 27 13.40625 L 27 13 L 27 4 L 27 3 L 26 3 L 6 3 L 5 3 z M 14.125 5 L 25 5 L 25 12.5625 L 23.28125 14.28125 L 23 14.59375 L 23 15 L 23 26 L 19 26 L 19 17.5 L 19 17.09375 L 18.71875 16.78125 L 17 15.0625 L 17 6.5 L 17 5.71875 L 16.25 5.53125 L 14.125 5 z M 7 5.28125 L 15 7.28125 L 15 15.5 L 15 15.90625 L 15.28125 16.21875 L 17 17.9375 L 17 26 L 17 27 L 17 28.28125 L 7 26.1875 L 7 5.28125 z" color="#000" overflow="visible" enable-background="accumulate"/></svg>

<svg xmlns="http://www.w3.org/2000/svg" viewBox="0 0 32 32"><path d="M5 3v24.813l.78.156 12 2.5 1.22.25V28h6V15.437l1.72-1.718.28-.314V3H5zm9.125 2H25v7.563l-1.72 1.718-.28.314V26h-4v-8.906l-.28-.313L17 15.063V5.72l-.75-.19L14.125 5zM7 5.28l8 2V15.907l.28.313L17 17.937V28.28L7 26.188V5.282z"/></svg>
